X:1
T:I Know I’ll See Jesus Some Day
T:I Know I’ll See Jesus Some Day
T:Scott Lawrence
T:Avis Marguerite Burgeson Christiansen, 1921
T:Public Domain Courtesy of the Cyber Hymnal™
T:Public Domain Courtesy of the Cyber Hymnal™
C:Scott Lawrence
Z:Public Domain
Z:Courtesy of the Cyber Hymnal™
%%score ( 1 2 ) ( 3 4 )
L:1/8
Q:1/4=130
M:6/4
K:Db
V:1 treble 
V:2 treble 
V:3 bass 
V:4 bass 
V:1
 [DF]3 [D=E] [DF]2 [_EG]2 [=DF]2 [EG]2 | [FA]2 [=Ec]2 [EB]2 [FA]4 [FA]2 | %2
w: 1.~Sweet is the hope that is|thrill- ing my soul— I|
w: 2.~Though I must tra- vel by|faith, not by sight, I|
w: 3.~Dark- ness is gath- ’ring, but|hope shines with- in, I|
 [Fd]3 [Fc] [FB]2 [FA]2 [EG]2 [DF]2 | ([FA]6 [EG]4) [DF]2 | %4
w: know I’ll see Je- sus some|day! * Then|
w: know I’ll see Je- sus some|day! * No|
w: know I’ll see Je- sus some|day! * What|
 [CE]3 [=B,=D] [CE]2 [CG]2 [_DF]2 [CE]2 | [DF]2 [DG]2 [DB]2 [DA]4 [FA]2 | %6
w: what if the dark clouds of|sin o’er me roll, I|
w: e- vil can harm me, no|foe can af- fright— I|
w: joy when He comes to wipe|out ev- ’ry sin; I|
 [D=G]3 [DF] [DE]2 [Fd]2 [Gc]2 [GB]2 | A6- [GA]4 ||"^Refrain" [GA]2 | %9
w: know I’ll see Je- sus some|day! *||
w: know I’ll see Je- sus some|day! I||
w: know I’ll see Je- sus some|day! *||
 [Fd]3 [Fc] [FB]2 [=DA]2 [DG]2 [DF]2 | B6- [EB]4 [GB]2 | [Gc]3 [GB] [FA]2 [EG]2 [=B,=D]2 [CE]2 | %12
w: |||
w: know I’ll see Je- sus some|day! I know|* I’ll see Je- sus some|
w: |||
 A6- [FA]4 [FA][F=A] | [FB]2 [=DF]2 [FA]2 [EG]4 [GB][GB] | [Gc]2 [GB]2 [Fc]2 [Fd]4 [Fd]2 | %15
w: |||
w: day! What a joy|* it will be When His|face I shall see, I|
w: |||
 [=Ed]2 [Ec]2 [EB]2 [FA]2 [G_e]3 [Fd] | [Fd]12 |] %17
w: ||
w: know I’ll see Je- sus some|day!|
w: ||
V:2
 x12 | x12 | x12 | x12 | x12 | x12 | x12 | A4 F2 x4 || x2 | x12 | E4 =D2 x6 | x12 | D4 G2 x6 | %13
 x12 | x12 | x12 | x12 |] %17
V:3
 [D,A,]3 [D,=G,] [D,A,]2 [C,A,]2 [A,,A,]2 [A,,A,]2 | [D,A,]2 [D,=G,]2 [D,B,]2 [D,D]4 [D,D]2 | %2
w: ~ ~ ~ ~ ~ ~|~ ~ ~ ~ ~|
 [D,A,]3 [D,A,] [D,B,]2 [D,D]2 [D,A,]2 [D,D]2 | D4 B,2 [A,C]4 A,2 | %4
w: ~ ~ ~ ~ ~ ~|~ ~ ~ ~|
 [A,,A,]3 [A,,A,] [A,,A,]2 [E,A,]2 [D,A,]2 [A,,A,]2 | [D,A,]2 [E,A,]2 G,2 [F,A,]4 [D,D]2 | %6
w: ~ ~ ~ ~ ~ ~|~ ~ ~ ~ ~|
 [E,B,]3 [E,A,] [E,G,]2 [E,B,]2 [E,E]2 [E,D]2 | (C4 D2 [A,E]4) || A,2 | %9
w: ~ ~ ~ ~ ~ ~|~ * *||
 [D,A,]3 [D,A,] [D,A,]2 [B,,B,]2 [B,,B,]2 [B,,A,]2 | [E,G,]4 [F,A,]2 [G,B,]4 [E,E]2 | %11
w: ~ ~ ~ ~ ~ ~|~ some day! ~|
 [A,E]3 [A,C] [A,D]2 A,2 A,2 [G,A,]2 | [F,A,]4 [E,C]2 [D,D]4 [D,D][C,E] | %13
w: ~ ~ ~ ~ ~ ~|~ some day! * *|
 [B,,=D]2 [B,,B,]2 [=D,B,]2 [E,B,]4 [E,E][E,E] | [A,E]2 [A,C]2 [=A,C]2 B,4 B,2 | %15
w: ||
 [=G,B,]2 [G,B,]2 [G,D]2 [A,D]2 [A,C]3 A, | [D,A,]12 |] %17
w: ||
V:4
 x12 | x12 | x12 | A,6- A,2 x4 | x12 | x4 G,2 x6 | x12 | A,6- x4 || A,2 | x12 | x12 | %11
 x6 A,2 A,2 x2 | x12 | x12 | x6 B,4 B,2 | x11 A, | x12 |] %17

